remix/Media/headphone-line.svg

<svg viewBox="0 0 24 24" fill="currentColor" xmlns="http://www.w3.org/2000/svg"><path d="M12 4C7.58172 4 4 7.58172 4 12H7C8.10457 12 9 12.8954 9 14V19C9 20.1046 8.10457 21 7 21H4C2.89543 21 2 20.1046 2 19V12C2 6.47715 6.47715 2 12 2C17.5228 2 22 6.47715 22 12V19C22 20.1046 21.1046 21 20 21H17C15.8954 21 15 20.1046 15 19V14C15 12.8954 15.8954 12 17 12H20C20 7.58172 16.4183 4 12 4ZM4 14V19H7V14H4ZM17 14V19H20V14H17Z"/></svg>

<svg viewBox="0 0 24 24" xmlns="http://www.w3.org/2000/svg"><path fill="none" d="M0 0h24v24H0Z"/><path d="M12 4v0c-4.42 0-8 3.58-8 8h3v0c1.1 0 2 .89 2 2v5 0c0 1.1-.9 2-2 2H4v0c-1.11 0-2-.9-2-2v-7C2 6.477 6.477 2 12 2c5.523 0 10 4.477 10 10v7 0c0 1.1-.9 2-2 2h-3v0c-1.11 0-2-.9-2-2v-5 0c0-1.11.89-2 2-2h3v0c0-4.42-3.59-8-8-8ZM4 14v5h3v-5H4Zm13 0v5h3v-5h-3Z"/></svg>
